X:1
T:Miss Jess. Wat:son's -- Hornpipe
R:hornpipe
B:Cole's 1000 Fiddle Tunes
M:C|
L:1/8
K:Bb
uf|vbf ~f2 dB ~B2|vedcB AGFE|DFBd EGcd|edcB BAGF|
vbf ~f2 dB ~B2|c=Bcd edc_B|Acfa Bc=eg|f2a2f2z:|
|:f|(vge)de ge(be)|(fd)^cd fd(bd)|gefd ecdB|cABG BAGF|
(DF)Bd (EG)ce|dBec fdge|fdec dBcA|B2{a}b2B2z:|
